X:276712222687651
T:4-9-8-12-3-11-5-7-12-12-6-11-3-2-10-9
%%setfont-1 Courier-Bold 8
T:$1K.516f::69:84:171:103:146:47:159:91:35:20:64:164:174:49:149:111::$0
T:$1Perm. No.: 276712222687651$0
M:3/8
L:1/8
Q:1/8=111
%%staves [1 2]
V:1 clef=treble
V:2 clef=bass
K:C
%1
[V:1]|: (gec) |\
[V:2]|: [C,2E,2]z |\
%2
[V:1] c/G/e/c/g/e/ |\
[V:2] [E,2C,2]z |\
%3
[V:1] B/c/d/e/f/d/ |\
[V:2] [G,2G,,2][G,B,,] |\
%4
[V:1] c/e/c/G/E |\
[V:2] [E,2C,2]z |\
%5
[V:1] [d^F][^fd][af] |\
[V:2] C,C,C,   |\
%6
[V:1] gg/d/b |\
[V:2] [D,2B,,2]z |\
%7
[V:1] e/g/d/c/B/A/ \
[V:2] C,D,D,, \
%8a
[V:1]|1 [g2d2B2G2]z :|2
[V:2]|1 G,,G,/=F,/E,/D,/ :|2
%8b
[V:1] [g2d2B2G2]z |:\
[V:2] G,,B,/G,/^F,/E,/ |:\
%9
[V:1] Ad^f |\
[V:2] [^F,2D,2][A,C,] |\
%10
[V:1] gb/d'/d |\
[V:2] B,,2z |\
%11
[V:1] e/g/c'/g/e/c/ |\
[V:2] [G,2C,2][G,C,] |\
%12
[V:1] dG2 |\
[V:2] G,/^F,/G,/D,/B,,/G,,/ |\
%13
[V:1] Gce |\
[V:2] [E,/C,/]G,/[E,/C,/]G,/[E,/C,/]G,/ |\
%14
[V:1] (ecG) |\
[V:2] [E,/C,/]G,/[E,/C,/]G,/[E,/C,/]G,/ |\
%15
[V:1] f/d/AB |\
[V:2] F,2G, |\
%16
[V:1] c2z :|]
[V:2] C,G,,C,, :|]
